!!!!SEGMENT: pl-gd--ee-2628--005-014_stabile-annibale--il-primo-libro-de-madrigali-a-cinque-voci-da-voi-sola-procede.krn
!!!cenid: 15xx:1059
!!!COM: Stabile, Annibale
!!!COM-rismid: pe30009662
!!!CDT: ~1535-1595/04
!!!CNT: Italian
!!!GTL: Il primo libro de madrigali a cinque voci
!!!OTL: Da voi sola procede
!!!OMV: 014
!!!PDT: 1586
!!!AGN:
!!!SMS-siglum: PL-GD
!!!SMS-shelfmark: Ee 2628
!!!SMS-variant:
!!!SMS-altvar:
!!!SMS-shelfwork: 005-014 G
!!!NIFC-rismid: 990060531
!!!URL-scan: https://repozytorium.nifc.pl/islandora/object/pl-gd%3A66139/datastream/PDF/view
!!!ONB-nifc: UWAGA: Canto: s. 78-89, Tenore: s. 233-245, Basso: s. 390-401, Quinto: s. 712-723. Dla głosu Alto proszę skorzystać z https://pbc.gda.pl/dlibra/doccontent?id=79410, str. 25-48. Uwaga: utwory podzielone wg spisu treści dostępnych na końcu ksiąg – proszę sprawdzać sąsiednie tytuły. Głos Quinto proszę umieszczać wg ambitusu (może się różnić w zależności od utworu).
!!!AIN: 1 alto 1 bass 1 soprn 2 tenor
!!!key:
**kern	**text	**kern	**text	**kern	**text	**kern	**text	**kern	**text
*part5	*part5	*part4	*part4	*part3	*part3	*part2	*part2	*part1	*part1
*staff5	*staff5	*staff4	*staff4	*staff3	*staff3	*staff2	*staff2	*staff1	*staff1
*I"BASSO	*	*I"TENORE	*	*I"QVINTO	*	*I"ALTO	*	*I"CANTO	*
*I'B	*	*I'T	*	*I'V 5	*	*I'A	*	*I'S	*
*Ibass	*	*Itenor	*	*Itenor	*	*Ialto	*	*Isoprn	*
*ICvox	*	*ICvox	*	*ICvox	*	*ICvox	*	*ICvox	*
*clefF4	*	*clefC4	*	*clefC4	*	*clefC3	*	*clefC1	*
*k[]	*	*k[]	*	*k[]	*	*k[]	*	*k[]	*
*G:	*	*G:	*	*G:	*	*G:	*	*G:	*
*M2/1	*	*M2/1	*	*M2/1	*	*M2/1	*	*M2/1	*
*met(C)	*	*met(C)	*	*met(C)	*	*met(C)	*	*met(C)	*
=1-	=1-	=1-	=1-	=1-	=1-	=1-	=1-	=1-	=1-
!LO:TX:a:i:t=Seconda parte.	!	!LO:TX:a:i:t=Seconda parte.	!	!LO:TX:a:i:t=Seconda parte.	!	!LO:TX:a:i:t=Seconda parte.	!	!	!
0r	.	0r	.	2r	.	1r	.	2g/	DA
.	.	.	.	2c\	DA	.	.	2e/	voi
.	.	.	.	4B\	voi	2g\	DA	1r	.
.	.	.	.	4G/	ſo-	.	.	.	.
.	.	.	.	4A/	-la	4f\	voi	.	.
.	.	.	.	4B\	pro-	4d\	ſo-	.	.
=2-	=2-	=2-	=2-	=2-	=2-	=2-	=2-	=2-	=2-
1r	.	2c\	DA	2A/	-ce-	4e\	-la	2cc\	Da
.	.	.	.	.	.	4f\	pro-	.	.
.	.	4d\	voi	2G/	-de	2g\	-ce-	4b\	voi
.	.	4e\	ſo-	.	.	.	.	4g/	ſo-
2r	.	4f\	-la	4r	.	1d	-de	4a\	-la
.	.	4g\	pro-	4G/	Da	.	.	4b\	pro-
2D/	DA	2f#X\	-ce-	4A/	voi	.	.	2a\	-ce-
.	.	.	.	4.d\	ſo-	.	.	.	.
=3-	=3-	=3-	=3-	=3-	=3-	=3-	=3-	=3-	=3-
4BB/	voi	4g\	-de	.	.	4r	.	1g	-de
.	.	.	.	8d\	-la	.	.	.	.
*	*	*	*ij	*	*	*	*ij	*	*
4C/	ſo-	4c\	DA	4G/	pro-	4e\	DA	.	.
4E\	-la	4B\	voi	8G/	-ce-	4e\	voi	.	.
.	.	.	.	8A/	.	.	.	.	.
4E\	pro-	4G/	ſo-	8B\	.	4e\	ſo-	.	.
.	.	.	.	8c\	.	.	.	.	.
!	!	!	!	!LO:SIC:v:t=custos d	!	!	!	!	!
!	!	!	!	!LO:LB:g=original	!	!	!	!	!
1D	-ce-	4A\	-la	1d	.	4f#X\	-la	2r	.
.	.	4B\	pro-	.	.	4g\	pro-	.	.
!	!	!LO:SIC:v:t=custos A	!	!	!	!	!	!	!
!	!	!LO:LB:g=original	!	!	!	!	!	!	!
.	.	2A/	-ce-	.	.	2f#X\	-ce-	2.dd\	oc-
=4-	=4-	=4-	=4-	=4-	=4-	=4-	=4-	=4-	=4-
2GG/	-de	1G	-de	2B\	-de	2g\	-de	.	.
*	*	*	*Xij	*	*	*	*Xij	*	*
.	.	.	.	.	.	.	.	4dd\	-chi
2.G\	oc-	.	.	2B\	oc-	2.g\	oc-	2dd\	be-
.	.	2r	.	4.d\	-chi	.	.	1b	-a-
4G\	-chi	.	.	.	.	4g\	-chi	.	.
.	.	.	.	8c\	.	.	.	.	.
!	!	!	!	!	!	!LO:SIC:v:t=custos g	!	!	!
!	!	!	!	!	!	!LO:LB:g=original	!	!	!
2G\	be-	2.d\	oc-	4B\	.	2g\	be-	.	.
.	.	.	.	4G/	be-	.	.	.	.
!	!	!	!	!	!	!	!	!LO:SIC:v:t=custos a	!
!	!	!	!	!	!	!	!	!LO:LB:g=original	!
=5-	=5-	=5-	=5-	=5-	=5-	=5-	=5-	=5-	=5-
1D	-a-	.	.	1A	-a-	1fny	-a-	0.a	-ti
.	.	4d\	-chi	.	.	.	.	.	.
.	.	2d\	be-	.	.	.	.	.	.
1AA	-ti	1c#X	-a-	2A/	-ti	2e\	-ti	.	.
.	.	.	.	2A/	Tut-	2e\	Tut-	.	.
!LO:SIC:v:t=custos D	!	!	!	!	!	!	!	!	!
!LO:LB:g=original	!	!	!	!	!	!	!	!	!
=6-	=6-	=6-	=6-	=6-	=6-	=6-	=6-	=6-	=6-
2r	.	0d	-ti	2D/	-to	4.f\	-to	.	.
.	.	.	.	.	.	8g\	.	.	.
2D/	Tut-	.	.	2F#X/	quel	4a\	.	.	.
.	.	.	.	.	.	4A/	quel	.	.
4GG/	-to	.	.	4G/	ben	4.B/	ben	2r	.
4.G\	Tut-	.	.	4G/	Tut-	.	.	.	.
.	.	.	.	.	.	8c/	.	.	.
.	.	.	.	4D/	-to	2d\	.	2a\	Tut-
8G\	-to	.	.	.	.	.	.	.	.
4F#X\	quel	.	.	4.d\	Tut-	.	.	.	.
=7-	=7-	=7-	=7-	=7-	=7-	=7-	=7-	=7-	=7-
2G\	ben	2r	.	.	.	4r	.	4d/	-to
.	.	.	.	8d\	-to	.	.	.	.
.	.	.	.	4B-X\	quel	4g\	Tut-	4.dd\	Tut-
2r	.	4r	.	2A/	ben	4f\	-to	.	.
.	.	.	.	.	.	.	.	8dd\	-to
.	.	4A/	Tut-	.	.	4e\	quel	4cc#X\	quel
!	!	!	!	!LO:SIC:v:t=custos F	!	!	!	!	!
!	!	!	!	!LO:LB:g=original	!	!	!	!	!
1r	.	4D/	-to	4r	.	2f\	ben	4dd\	ben
.	.	4.d\	Tut-	4Fny/	Tut-	.	.	4a\	Tut-
.	.	.	.	4G/	-to	2e\	che'n	4b-X\	-to
.	.	8d\	-to	.	.	.	.	.	.
.	.	4c#X\	quel	4A/	quel	.	.	4a\	quel
!	!	!LO:SIC:v:t=custos d	!	!	!	!	!	!	!
!	!	!LO:LB:g=original	!	!	!	!	!	!	!
=8-	=8-	=8-	=8-	=8-	=8-	=8-	=8-	=8-	=8-
2r	.	2d\	ben	2D/	ben	2f\	queſ-	2a\	ben
2D/	che'n	4r	.	2A/	che'n	2d\	-ta	2f/	che'n
.	.	4D/	che'n	.	.	.	.	.	.
!	!	!	!	!	!	!	!	!LO:SIC:v:t=custos g	!
!	!	!	!	!	!	!	!	!LO:LB:g=original	!
2C/	queſ-	4G/	queſ-	2.c\	queſ-	1e	mor-	4g/	queſ-
.	.	4E/	-ta	.	.	.	.	4g/	-ta
2AA/	-ta	4E/	mor-	.	.	.	.	1a\	mor-
.	.	4A/	-tal	4c\	-ta	.	.	.	.
=9-	=9-	=9-	=9-	=9-	=9-	=9-	=9-	=9-	=9-
2FF/	mor-	2A/	vi-	2c\	mor-	2f\	-tal	.	.
!	!	!	!	!	!	!LO:SIC:v:t=custos d	!	!	!
!	!	!	!	!	!	!LO:LB:g=original	!	!	!
2GG/	-tal	2D/	-ta	2Bny\	-tal	2.d\	vi-	2g/	-tal
1D	vi-	2r	.	1A	vi-	.	.	4.f#X/	vi-
.	.	.	.	.	.	8c/	.	.	.
.	.	.	.	.	.	8B/	.	8e/	.
.	.	2d\	Puo	.	.	2A/	.	2f#X/	.
=10-	=10-	=10-	=10-	=10-	=10-	=10-	=10-	=10-	=10-
2GG/	-ta	2B\	darm'-	2G/	-ta	2d\	-ta	0g	-ta
2G\	Puo	2G/	-il	2B\	Puo	4r	.	.	.
.	.	.	.	.	.	4d\	Puo	.	.
2E\	darm'-	1cny	cie-	4G/	darm'-	2e\	darm-	.	.
.	.	.	.	4E/	-il	.	.	.	.
2C/	-il	.	.	2e\	cie-	2g\	-'il	.	.
=11-	=11-	=11-	=11-	=11-	=11-	=11-	=11-	=11-	=11-
1G	cie-	1B	-lo	0d	-lo	1g	cie-	1r	.
!LO:SIC:v:t=custos D	!	!	!	!	!	!	!	!	!
!LO:LB:g=original	!	!	!	!	!	!	!	!	!
1D	-lo	2r	.	.	.	1f#X	-lo	2r	.
.	.	2A/	(et)	.	.	.	.	2dd\	(et)
=12-	=12-	=12-	=12-	=12-	=12-	=12-	=12-	=12-	=12-
0r	.	4G/	mia	0r	.	4r	.	2bny\	mia
.	.	4G/	be-	.	.	4g\	(et)	.	.
.	.	4.c\	-ni-	.	.	2e\	mia	4g/	be-
.	.	.	.	.	.	.	.	2ccny\	-ni-
.	.	8B\	.	.	.	.	.	.	.
.	.	4A\	.	.	.	4c/	be-	.	.
.	.	4G/	-gna	.	.	2g\	-ni-	4b\	-gna
!	!	!LO:SIC:v:t=custos d	!	!	!	!	!	!	!
!	!	!LO:LB:g=original	!	!	!	!	!	!	!
.	.	2d\	ſor-	.	.	.	.	2a\	ſor-
.	.	.	.	.	.	4f#X\	-gna	.	.
=13-	=13-	=13-	=13-	=13-	=13-	=13-	=13-	=13-	=13-
2r	.	2G/	-te	2d\	(et)	2.g\	ſor-	2g/	-te
2G\	(et)	2d\	(et)	2B\	mia	.	.	4r	.
*	*	*	*	*	*	*	*	*	*ij
.	.	.	.	.	.	4G/	-te	4g/	(et)
2E\	mia	2.e\	mia	2G/	be-	1r	.	2g\	mia
!	!	!	!	!LO:SIC:v:t=custos c	!	!	!	!LO:SIC:v:t=custos g	!
!	!	!	!	!LO:LB:g=original	!	!	!	!LO:LB:g=original	!
4C/	be-	.	.	2.c\	-ni-	.	.	4g\	be-
2Fny\	-ni-	4fny\	be-	.	.	.	.	2a\	-ni-
=14-	=14-	=14-	=14-	=14-	=14-	=14-	=14-	=14-	=14-
.	.	4f\	-ni-	.	.	1r	.	.	.
4E\	-gna	2c\	-gna	4c\	-gna	.	.	4g\	-gna
2D/	ſor-	.	.	2d\	ſor-	.	.	2fny/	ſor-
.	.	4B\	ſor-	.	.	.	.	.	.
1C	-te	1c	-te	1G	-te	2r	.	1e	-te
*	*	*	*	*	*	*	*	*	*Xij
.	.	.	.	.	.	4r	.	.	.
.	.	.	.	.	.	4.g\	Sia-	.	.
=15-	=15-	=15-	=15-	=15-	=15-	=15-	=15-	=15-	=15-
0r	.	2r	.	4r	.	.	.	4r	.
.	.	.	.	.	.	8g\	-te-	.	.
.	.	.	.	4.G/	Sia-	4g\	mi a	4.b\	Sia-
!	!	!	!	!	!	!LO:SIC:v:t=custos d	!	!	!
!	!	!	!	!	!	!LO:LB:g=original	!	!	!
.	.	4r	.	.	.	4d\	dun-	.	.
.	.	.	.	8G/	-te-	.	.	8b\	-te
.	.	4.d\	Sia-	4G/	mi a-	4g\	-que	4b\	mi a-
.	.	.	.	4B-X\	-dun-	4fny\	piu	4dd\	-dun-
.	.	8d\	-te	.	.	.	.	.	.
.	.	4d\	mi a-	4B-\	-que	4g\	cor-	4dd\	-que
.	.	4e\	-dun-	4A/	piu	4a\	-te-	2.cc\	piu
.	.	4f\	-que	4A/	cor-	4a\	ſi (et)	.	.
=16-	=16-	=16-	=16-	=16-	=16-	=16-	=16-	=16-	=16-
4r	.	2g\	piu	8G/	-te-	2d\	gra-	.	.
.	.	.	.	8A/	.	.	.	.	.
4.G\	Sia-	.	.	8Bny\	.	.	.	8b\	.
.	.	.	.	8c\	.	.	.	8a\	.
.	.	4r	.	8d\	.	2d\	-ti	4b\	.
8G\	-te-	.	.	8c\	.	.	.	.	.
*	*	*	*ij	*	*	*	*	*	*
4G\	mi a-	4.d\	Sia-	8d\	.	.	.	4b\	cor-
.	.	.	.	8e\	.	.	.	.	.
4D/	-dun-	.	.	4f\	.	1r	.	4a\	-te-
.	.	8d\	-te	.	.	.	.	.	.
4G\	-que	4d\	mi a-	4g\	-ſi	.	.	4b\	ſi (et)
!	!	!LO:SIC:v:t=custos f	!	!LO:SIC:v:t=custos c	!	!	!	!	!
!	!	!LO:LB:g=original	!	!LO:LB:g=original	!	!	!	!	!
4F\	piu	4f\	-dun-	4c\	(et)	.	.	2a\	gra-
4D/	cor-	4f\	-que	2d\	gra-	.	.	.	.
=17-	=17-	=17-	=17-	=17-	=17-	=17-	=17-	=17-	=17-
2A\	-te-	4e\	piu	.	.	4r	.	1a	-ti
*	*	*	*Xij	*	*	*	*	*	*
.	.	4e\	cor-	8c#X\	.	4.A/	Sia-	.	.
.	.	.	.	8B\	.	.	.	.	.
2AA/	ſi (et)	4e\	-te-	2c#X\	.	.	.	.	.
.	.	.	.	.	.	8A/	-te-	.	.
.	.	4E/	ſi (et)	.	.	4A/	mi a-	.	.
2D/	gra-	2F#X/	gra-	2d\	-ti	4A/	-dun-	2r	.
.	.	.	.	.	.	4B/	-que	.	.
!LO:SIC:v:t=custos C	!	!	!	!	!	!	!	!	!
!LO:LB:g=original	!	!	!	!	!	!	!	!	!
2C/	-ti	4G/	-ti	2e\	cor-	4c/	piu	2g/	cor-
.	.	4G/	cor-	.	.	4c/	cor-	.	.
!	!	!	!	!	!	!	!	!LO:SIC:v:t=custos a	!
!	!	!	!	!	!	!	!	!LO:LB:g=original	!
=18-	=18-	=18-	=18-	=18-	=18-	=18-	=18-	=18-	=18-
1r	.	4Fny/	-te-	4A/	-te-	4f\	-te-	4a\	-te-
.	.	4C/	ſi et	4cny\	ſi et	4e\	ſi (et)	4g/	-ſi
.	.	2G/	gra-	2B\	gra-	2d\	gra-	2g/	gra-
*	*	*	*	*	*ij	*	*	*	*
2r	.	2C/	-ti	2c\	ti et	2e\	-ti	2g/	-ti
*	*	*	*ij	*	*	*	*	*	*ij
2GG/	cor-	2G/	cor-	2d\	gra-	4r	.	2b\	cor-
.	.	.	.	.	.	4g\	cor-	.	.
=19-	=19-	=19-	=19-	=19-	=19-	=19-	=19-	=19-	=19-
4C/	-te-	4G/	-te-	4c\	-ti	4e\	-te-	4cc\	-te-
4GG/	ſi et	4d\	ſi et	4B\	cor-	4g\	ſi (et)	4dd\	-ſi
!	!	!	!	!	!	!LO:SIC:v:t=custos f#	!	!	!
!	!	!	!	!	!	!LO:LB:g=original	!	!	!
2D/	gra-	2d\	gra-	2A/	-te-	2f#X\	gra-	2dd\	gra-
1GG	-ti	1d	-ti	2G/	-ſi	2g\	-ti	1b	-ti
*	*	*	*Xij	*	*Xij	*	*	*	*Xij
.	.	.	.	2G/	(et)	4r	.	.	.
.	.	.	.	.	.	4g\	(et)	.	.
=20-	=20-	=20-	=20-	=20-	=20-	=20-	=20-	=20-	=20-
0r	.	2r	.	4A/	col	4fny\	col	2r	.
.	.	.	.	4B\	ſplen-	4d\	ſplen-	.	.
.	.	4r	.	4c\	-dor	4e\	-dor	4r	.
.	.	4c\	(et)	4A/	de	4e\	de	4cc\	(et)
!	!	!LO:SIC:v:t=custos d	!	!LO:SIC:v:t=custos G	!	!	!	!	!
!	!	!LO:LB:g=original	!	!LO:LB:g=original	!	!	!	!	!
.	.	4d\	col	4G/	la	4.g\	la	4b\	col
.	.	4e\	ſplen-	4E/	bel-	.	.	4g/	ſplen-
.	.	.	.	.	.	8e\	bel-	.	.
.	.	4A/	-dor	4.D/	-ta'in-	2.f\	tà in-	2.a\	-dor
.	.	4d\	de	.	.	.	.	.	.
.	.	.	.	8E/	.	.	.	.	.
=21-	=21-	=21-	=21-	=21-	=21-	=21-	=21-	=21-	=21-
4r	.	4c\	la	8F/	.	.	.	.	.
.	.	.	.	8G/	.	.	.	.	.
4C/	(et)	4c\	bel-	2A/	.	4e\	-fi-	4cc\	de
4D/	col	4f\	tà in-	.	.	4d\	-ni-	2b\	la
4E\	ſplen-	4e\	-fi-	4G#X/	-fi-	4B/	-ta	.	.
4AA/	-dor	4e\	-ni-	2A/	-ni-	4r	.	2a\	bel-
4AA/	de	4A/	-ta	.	.	4c/	de	.	.
4.A\	la	2r	.	2F/	-ta	4c/	la	4.cc\	-ta'in-
.	.	.	.	.	.	4c/	bel-	.	.
8G\	bel-	.	.	.	.	.	.	8b\	.
!	!	!	!	!	!	!	!	!LO:SIC:v:t=custos a	!
!	!	!	!	!	!	!	!	!LO:LB:g=original	!
=22-	=22-	=22-	=22-	=22-	=22-	=22-	=22-	=22-	=22-
4F\	tà in-	4r	.	1r	.	4d\	tà in-	4a\	.
4E\	-fi-	4.c\	Li-	.	.	4e\	-fi-	4g/	-fi-
2D/	-ni-	.	.	.	.	2f\	-ni-	2dd\	-ni-
.	.	8c\	-be-	.	.	.	.	.	.
.	.	4B\	-ra-	.	.	.	.	.	.
2D/	-ta	4c\	te il	4r	.	2e\	-ta	1g	-ta
.	.	4c\	mio	4.c\	Li-	.	.	.	.
!	!	!	!	!	!	!LO:SIC:v:t=custos g	!	!	!
!	!	!	!	!	!	!LO:LB:g=original	!	!	!
2r	.	2G/	cor	.	.	4r	.	.	.
.	.	.	.	8c\	-be-	.	.	.	.
.	.	.	.	4B\	-ra-	4.g\	Li-	.	.
!LO:SIC:v:t=custos F	!	!	!	!	!	!	!	!	!
!LO:LB:g=original	!	!	!	!	!	!	!	!	!
=23-	=23-	=23-	=23-	=23-	=23-	=23-	=23-	=23-	=23-
0r	.	1r	.	4Gny/	te il	.	.	4r	.
.	.	.	.	.	.	8g\	-be-	.	.
.	.	.	.	4A/	mio	4e\	-ra-	4.cc\	Li-
.	.	.	.	4F/	cor	4f\	te il	.	.
.	.	.	.	.	.	.	.	8cc\	-be-
.	.	.	.	4G/	d'a-	4d\	mio	4b\	-ra-
.	.	4r	.	4C/	-cer-	4e\	cor	4cc\	te il
*	*	*	*ij	*	*	*	*	*	*
.	.	4.c\	Li-	4F/	-ba	4f\	d'a-	4a\	mio
.	.	.	.	4A/	mor-	4c/	-cer-	4f/	cor
.	.	8c\	-be-	.	.	.	.	.	.
.	.	4B\	-ra-	4G/	-te	4d\	-ba	2g/	d'a-
!	!	!LO:SIC:v:t=custos c	!	!LO:SIC:v:t=custos c	!	!	!	!	!
!	!	!LO:LB:g=original	!	!LO:LB:g=original	!	!	!	!	!
=24-	=24-	=24-	=24-	=24-	=24-	=24-	=24-	=24-	=24-
1r	.	4c\	-te	4r	.	2e\	mor-	.	.
.	.	4A/	il	4.c\	Li-	.	.	2a\	-cer-
.	.	4F/	mio	.	.	2d\	-te	.	.
*	*	*	*Xij	*	*	*	*	*	*
.	.	.	.	8c\	-be-	.	.	.	.
.	.	4G/	d'a-	4B\	-ra-	.	.	8g/	.
.	.	.	.	.	.	.	.	8f/	.
4r	.	4C/	-cer-	4c\	te il	0r	.	4e/	.
4.F\	Li-	4.c\	-ba	4A/	mio	.	.	4f/	-ba
.	.	.	.	4F/	cor	.	.	4a\	mor-
8F\	-be-	8d\	.	.	.	.	.	.	.
4E\	-ra-	2e\	.	4G/	d'a-	.	.	2g/	.
=25-	=25-	=25-	=25-	=25-	=25-	=25-	=25-	=25-	=25-
4C/	te il	.	.	2A/	-cer-	.	.	.	.
4D/	mio	8d\	.	.	.	.	.	4f#X/	.
.	.	8c\	.	.	.	.	.	.	.
!	!	!	!	!	!	!	!	!LO:SIC:v:t=custos g	!
!	!	!	!	!	!	!	!	!LO:LB:g=original	!
2GG/	cor	4.B\	mor-	2G/	-ba	.	.	2g/	-te
.	.	8c\	.	.	.	.	.	.	.
2G\	d'a-	4d\	.	2B\	mor-	4r	.	2r	.
.	.	4.e\	.	.	.	4.g\	Li-	.	.
4A\	-cer-	.	.	2c\	-te	.	.	4r	.
.	.	8d\	.	.	.	8g\	-be-	.	.
4A\	-ba	8c\	.	.	.	4f\	-ra-	4.cc\	Li-
.	.	8d\	.	.	.	.	.	.	.
=26-	=26-	=26-	=26-	=26-	=26-	=26-	=26-	=26-	=26-
2G\	mor-	4e\	.	4r	.	4g\	te il	.	.
.	.	.	.	.	.	.	.	8cc\	-be-
.	.	4.d\	.	4G/	d'a-	4g\	mio	4b\	-ra-
4C/	-te	.	.	4G/	-cer-	2e\	cor	4ee\	te il
.	.	8c\	.	.	.	.	.	.	.
4AA/	d'a-	2c\	.	4C/	-ba	.	.	4cc\	mio
2GG/	-cer-	.	.	1G	mor-	4r	.	2dd\	cor
.	.	4B\	.	.	.	4g\	d'a-	.	.
!	!	!LO:SIC:v:t=custos c	!	!	!	!	!	!	!
!	!	!LO:LB:g=original	!	!	!	!	!	!	!
2C/	-ba	4c\	-te	.	.	4e\	-cer-	2r	.
.	.	4c\	d'a-	.	.	4e\	-ba	.	.
=27-	=27-	=27-	=27-	=27-	=27-	=27-	=27-	=27-	=27-
0D	mor-	2A/	-cer-	2F#X/	-te.	0d	mor-	4r	.
.	.	.	.	.	.	.	.	4a\	d'ac-
.	.	4D/	-ba	4r	.	.	.	4b-X\	-cer-
*	*	*	*	*	*ij	*	*	*	*
.	.	4F#X/	d'a-	4A\	d'a-	.	.	2a\	-ba
.	.	4F#/	-cer-	4B-X\	-cer-	.	.	.	.
.	.	4G/	-ba	4B-\	-ba	.	.	2g/	mor-
.	.	2A/	mor-	2A\	mor-	.	.	.	.
.	.	.	.	.	.	.	.	4f#X/	.
=28-	=28-	=28-	=28-	=28-	=28-	=28-	=28-	=28-	=28-
0GGl	-te.	0dl	-te.	0Gl	-te.	0Bl	-te.	0gl	-te.
*	*	*	*	*	*Xij	*	*	*	*
=||	=||	=||	=||	=||	=||	=||	=||	=||	=||
*-	*-	*-	*-	*-	*-	*-	*-	*-	*-
!!!RDF**kern: l = terminal long
!!!system-decoration: [(s1,s2,s3,s4,s5)]
!!!ENC: Mateusz Solarz
!!!END: 2022-07-08
!!!ENC: Urszula Świątek
!!!END: 2022-07-29
